actions/48/go-down.svg

<?xml version="1.0" encoding="UTF-8" standalone="no"?>
<!-- Created with Inkscape (http://www.inkscape.org/) -->

<svg
   xmlns:svg="http://www.w3.org/2000/svg"
   xmlns="http://www.w3.org/2000/svg"
   xmlns:xlink="http://www.w3.org/1999/xlink"
   version="1.1"
   width="48"
   height="48"
   id="svg2495">
  <defs
     id="defs2497">
    <linearGradient
       id="linearGradient5105-262-943-861">
      <stop
         id="stop2487"
         style="stop-color:#0d0d0d;stop-opacity:1"
         offset="0" />
      <stop
         id="stop2489"
         style="stop-color:#0d0d0d;stop-opacity:0"
         offset="1" />
    </linearGradient>
    <radialGradient
       cx="11.25"
       cy="19.03125"
       r="8.0625"
       fx="11.25"
       fy="19.03125"
       id="radialGradient5315"
       xlink:href="#linearGradient5105-262-943-861"
       gradientUnits="userSpaceOnUse"
       gradientTransform="matrix(1,0,0,0.282946,0,13.64644)" />
    <linearGradient
       id="linearGradient2264">
      <stop
         id="stop2266"
         style="stop-color:#d7e866;stop-opacity:1"
         offset="0" />
      <stop
         id="stop2268"
         style="stop-color:#8cab2a;stop-opacity:1"
         offset="1" />
    </linearGradient>
    <linearGradient
       x1="28.670898"
       y1="23.890965"
       x2="1.3099612"
       y2="23.890965"
       id="linearGradient2615"
       xlink:href="#linearGradient2264"
       gradientUnits="userSpaceOnUse"
       gradientTransform="matrix(0,-0.98279,-0.9893763,0,47.637156,43.300051)" />
    <linearGradient
       id="linearGradient4222">
      <stop
         id="stop4224"
         style="stop-color:white;stop-opacity:1"
         offset="0" />
      <stop
         id="stop4226"
         style="stop-color:white;stop-opacity:0"
         offset="1" />
    </linearGradient>
    <linearGradient
       x1="8.5273199"
       y1="33.332287"
       x2="57.411129"
       y2="33.332287"
       id="linearGradient2612"
       xlink:href="#linearGradient4222"
       gradientUnits="userSpaceOnUse"
       gradientTransform="matrix(0,1.1398464,-1.1421864,0,54.071685,-7.2102842)" />
  </defs>
  <g
     id="layer1">
    <path
       d="m 19.3125,19.03125 a 8.0625,2.28125 0 1 1 -16.125,0 8.0625,2.28125 0 1 1 16.125,0 z"
       transform="matrix(2.9695155,0,0,2.8861277,-9.4070494,-14.010597)"
       id="path4346"
       style="opacity:0.16292138;fill:url(#radialGradient5315);fill-opacity:1;fill-rule:nonzero;stroke:none;stroke-width:1;marker:none;visibility:visible;display:inline;overflow:visible" />
    <path
       d="M 43.500221,19.500222 23.951009,41.500221 4.4997782,19.500222 l 9.0002218,0 0,-18.0002212 21,0 0,18.0002212 9.000221,0 z"
       id="path4348"
       style="fill:url(#linearGradient2615);fill-opacity:1;fill-rule:nonzero;stroke:#548820;stroke-width:0.9995572;stroke-linecap:round;stroke-linejoin:round;stroke-miterlimit:4;stroke-opacity:1;stroke-dasharray:none;stroke-dashoffset:0;marker:none;visibility:visible;display:inline;overflow:visible" />
    <path
       d="M 41.338037,20.500222 24,40.000221 6.4999996,20.500222 l 8.0000004,0 0,-18.0000002 19,0 0,18.0000002 7.838037,0 z"
       id="path4360"
       style="opacity:0.35400008;fill:none;stroke:url(#linearGradient2612);stroke-width:0.9995572;stroke-linecap:butt;stroke-linejoin:miter;stroke-miterlimit:4;stroke-opacity:1;stroke-dasharray:none;stroke-dashoffset:0;marker:none;visibility:visible;display:inline;overflow:visible" />
  </g>
</svg>

<?xml version="1.0" encoding="UTF-8" standalone="no"?>
<!-- Created with Inkscape (http://www.inkscape.org/) -->
<svg
   xmlns:dc="http://purl.org/dc/elements/1.1/"
   xmlns:cc="http://creativecommons.org/ns#"
   xmlns:rdf="http://www.w3.org/1999/02/22-rdf-syntax-ns#"
   xmlns:svg="http://www.w3.org/2000/svg"
   xmlns="http://www.w3.org/2000/svg"
   xmlns:xlink="http://www.w3.org/1999/xlink"
   xmlns:sodipodi="http://sodipodi.sourceforge.net/DTD/sodipodi-0.dtd"
   xmlns:inkscape="http://www.inkscape.org/namespaces/inkscape"
   width="48px"
   height="48px"
   id="svg2495"
   sodipodi:version="0.32"
   inkscape:version="0.46"
   sodipodi:docname="go-down.svg"
   inkscape:output_extension="org.inkscape.output.svg.inkscape">
  <defs
     id="defs2497">
    <linearGradient
       inkscape:collect="always"
       id="linearGradient5105-262-943-861">
      <stop
         offset="0"
         id="stop2487"
         style="stop-color:#0d0d0d;stop-opacity:1;" />
      <stop
         offset="1"
         id="stop2489"
         style="stop-color:#0d0d0d;stop-opacity:0;" />
    </linearGradient>
    <radialGradient
       r="8.0625"
       fy="19.03125"
       fx="11.25"
       cy="19.03125"
       cx="11.25"
       gradientTransform="matrix(1,0,0,0.282946,0,13.64644)"
       gradientUnits="userSpaceOnUse"
       id="radialGradient5315"
       xlink:href="#linearGradient5105-262-943-861"
       inkscape:collect="always" />
    <linearGradient
       id="linearGradient2264">
      <stop
         style="stop-color:#d7e866;stop-opacity:1;"
         offset="0"
         id="stop2266" />
      <stop
         style="stop-color:#8cab2a;stop-opacity:1;"
         offset="1"
         id="stop2268" />
    </linearGradient>
    <linearGradient
       inkscape:collect="always"
       xlink:href="#linearGradient2264"
       id="linearGradient2615"
       gradientUnits="userSpaceOnUse"
       gradientTransform="matrix(0,-0.98279,-0.9893763,0,47.637156,43.300051)"
       x1="28.670898"
       y1="23.890965"
       x2="1.3099612"
       y2="23.890965" />
    <linearGradient
       inkscape:collect="always"
       id="linearGradient4222">
      <stop
         style="stop-color:#ffffff;stop-opacity:1;"
         offset="0"
         id="stop4224" />
      <stop
         style="stop-color:#ffffff;stop-opacity:0;"
         offset="1"
         id="stop4226" />
    </linearGradient>
    <linearGradient
       inkscape:collect="always"
       xlink:href="#linearGradient4222"
       id="linearGradient2612"
       gradientUnits="userSpaceOnUse"
       gradientTransform="matrix(0,1.1398464,-1.1421864,0,54.071685,-7.2102842)"
       x1="8.5273199"
       y1="33.332287"
       x2="57.411129"
       y2="33.332287" />
    <inkscape:perspective
       sodipodi:type="inkscape:persp3d"
       inkscape:vp_x="0 : 24 : 1"
       inkscape:vp_y="0 : 1000 : 0"
       inkscape:vp_z="48 : 24 : 1"
       inkscape:persp3d-origin="24 : 16 : 1"
       id="perspective2503" />
  </defs>
  <sodipodi:namedview
     id="base"
     pagecolor="#ffffff"
     bordercolor="#666666"
     borderopacity="1.0"
     inkscape:pageopacity="0.0"
     inkscape:pageshadow="2"
     inkscape:zoom="7"
     inkscape:cx="24"
     inkscape:cy="24"
     inkscape:current-layer="layer1"
     showgrid="true"
     inkscape:grid-bbox="true"
     inkscape:document-units="px"
     inkscape:window-width="640"
     inkscape:window-height="720"
     inkscape:window-x="0"
     inkscape:window-y="24" />
  <metadata
     id="metadata2500">
    <rdf:RDF>
      <cc:Work
         rdf:about="">
        <dc:format>image/svg+xml</dc:format>
        <dc:type
           rdf:resource="http://purl.org/dc/dcmitype/StillImage" />
      </cc:Work>
    </rdf:RDF>
  </metadata>
  <g
     id="layer1"
     inkscape:label="Layer 1"
     inkscape:groupmode="layer">
    <path
       id="path4346"
       sodipodi:cx="11.25"
       sodipodi:cy="19.03125"
       transform="matrix(2.9695155,0,0,2.8861277,-9.4070494,-14.010597)"
       d="M 19.3125,19.03125 A 8.0625,2.28125 0 1 1 3.1875,19.03125 A 8.0625,2.28125 0 1 1 19.3125,19.03125 z"
       sodipodi:type="arc"
       style="display:inline;opacity:0.16292138000000000;fill:url(#radialGradient5315);fill-opacity:1;fill-rule:nonzero;stroke:none;stroke-width:1;stroke-linecap:butt;stroke-linejoin:miter;marker:none;marker-start:none;marker-mid:none;marker-end:none;stroke-miterlimit:4;stroke-dasharray:none;stroke-dashoffset:0;stroke-opacity:1;visibility:visible;overflow:visible"
       sodipodi:ry="2.28125"
       sodipodi:rx="8.0625" />
    <path
       id="path4348"
       d="M 43.500221,19.500222 L 23.951009,41.500221 L 4.4997782,19.500222 L 13.5,19.500222 L 13.5,1.5000008 L 34.5,1.5000008 L 34.5,19.500222 L 43.500221,19.500222 z"
       style="display:inline;fill:url(#linearGradient2615);fill-opacity:1;fill-rule:nonzero;stroke:#548820;stroke-width:0.99955720000000003;stroke-linecap:round;stroke-linejoin:round;marker:none;marker-start:none;marker-mid:none;marker-end:none;stroke-miterlimit:4;stroke-dasharray:none;stroke-dashoffset:0;stroke-opacity:1;visibility:visible;overflow:visible"
       sodipodi:nodetypes="cccccccc" />
    <path
       id="path4360"
       d="M 41.338037,20.500222 L 24,40.000221 L 6.4999996,20.500222 L 14.5,20.500222 L 14.5,2.5002218 L 33.5,2.5002218 L 33.5,20.500222 L 41.338037,20.500222 z"
       style="display:inline;opacity:0.35400002000000003;fill:none;fill-opacity:1;fill-rule:nonzero;stroke:url(#linearGradient2612);stroke-width:0.99955720000000003;stroke-linecap:butt;stroke-linejoin:miter;marker:none;marker-start:none;marker-mid:none;marker-end:none;stroke-miterlimit:4;stroke-dasharray:none;stroke-dashoffset:0;stroke-opacity:1;visibility:visible;overflow:visible"
       sodipodi:nodetypes="cccccccc" />
  </g>
</svg>
